images/Pattern (1).svg

<svg fill="none" height="91" viewBox="0 0 149 91" width="149" xmlns="http://www.w3.org/2000/svg" xmlns:xlink="http://www.w3.org/1999/xlink"><clipPath id="a"><path d="m0 0h148.89v90.91h-148.89z"/></clipPath><g clip-path="url(#a)" fill="#3b82f6"><path d="m146.25 90.9099c1.458 0 2.64-1.182 2.64-2.64s-1.182-2.64-2.64-2.64-2.64 1.182-2.64 2.64 1.182 2.64 2.64 2.64z"/><path d="m122.31 90.9099c1.458 0 2.64-1.182 2.64-2.64s-1.182-2.64-2.64-2.64-2.64 1.182-2.64 2.64 1.182 2.64 2.64 2.64z"/><path d="m98.3799 90.9099c.5246.0019 1.0379-.1518 1.475-.4417.4371-.29.7781-.7033.9801-1.1873s.256-1.0172.155-1.5319-.352-.9878-.723-1.3594c-.3698-.3716-.842-.625-1.3563-.7281-.5143-.103-1.0477-.0511-1.5325.1491-.4848.2003-.8993.54-1.1909.976s-.4474.9487-.4474 1.4732c0 .7011.2779 1.3737.7727 1.8703.4948.4967 1.1663.7771 1.8673.7798z"/><path d="m74.45 90.9099c.5241 0 1.0365-.1554 1.4723-.4466s.7754-.7051.976-1.1893c.2005-.4842.253-1.0171.1507-1.5311-.1022-.5141-.3546-.9862-.7252-1.3568s-.8428-.6231-1.3568-.7253c-.5141-.1023-1.0469-.0498-1.5311.1508-.4843.2006-.8981.5402-1.1893.976-.2911.4358-.4466.9481-.4466 1.4722 0 .348.0685.6927.2016 1.0142.1332.3215.3284.6136.5745.8597s.5382.4413.8598.5745c.3215.1332.6661.2017 1.0141.2017z"/><path d="m50.51 90.9099c1.458 0 2.64-1.182 2.64-2.64s-1.182-2.64-2.64-2.64-2.64 1.182-2.64 2.64 1.182 2.64 2.64 2.64z"/><path d="m27.5903 90.5957c1.3485-.5544 1.9923-2.0971 1.4378-3.4456-.5544-1.3485-2.097-1.9921-3.4455-1.4377s-1.9923 2.097-1.4379 3.4455c.5545 1.3485 2.0971 1.9923 3.4456 1.4378z"/><path d="m2.64998 85.6602c-.52496-.002-1.03863.152-1.47595.4424-.437318.2904-.778535.7042-.980345 1.1889-.20181104.4846-.2551305 1.0182-.1531987 1.5332.1019317.515.3544977.9881.7257077 1.3593.371206.3712.844276.6238 1.359256.7257s1.04869.0486 1.53332-.1532.89842-.543 1.18885-.9803c.29042-.4373.44436-.951.44238-1.476-.00264-.6994-.2816-1.3694-.77612-1.8639-.49453-.4945-1.16454-.7735-1.8639-.7761z"/><path d="m146.25 69.5002c1.458 0 2.64-1.182 2.64-2.64s-1.182-2.64-2.64-2.64-2.64 1.182-2.64 2.64 1.182 2.64 2.64 2.64z"/><path d="m122.31 69.5002c1.458 0 2.64-1.182 2.64-2.64s-1.182-2.64-2.64-2.64-2.64 1.182-2.64 2.64 1.182 2.64 2.64 2.64z"/><path d="m98.38 69.5002c.5249.002 1.0387-.152 1.476-.4424.437-.2905.779-.7043.98-1.1889.202-.4846.256-1.0183.154-1.5332-.102-.515-.355-.9882-.726-1.3594-.3713-.3712-.8445-.6237-1.3595-.7257-.515-.1019-1.0486-.0486-1.5332.1532s-.8984.5431-1.1888.9804c-.2905.4373-.4445.951-.4426 1.476.0027.6993.2818 1.3693.7763 1.8638s1.1644.7736 1.8638.7762z"/><path d="m74.45 69.5002c.5246 0 1.0373-.1557 1.4733-.4473.436-.2917.7757-.7061.976-1.1909.2002-.4848.2521-1.0182.149-1.5325s-.3564-.9865-.728-1.3567-.8448-.6218-1.3595-.7229-1.0478-.0472-1.5319.1549c-.484.2021-.8971.5433-1.1871.9804s-.4438.9504-.4418 1.475c0 .3475.0686.6916.2019 1.0126.1333.3209.3286.6124.5748.8577s.5384.4395.8599.5716.6659.1994 1.0134.1981z"/><path d="m50.51 69.5002c1.458 0 2.64-1.182 2.64-2.64s-1.182-2.64-2.64-2.64-2.64 1.182-2.64 2.64 1.182 2.64 2.64 2.64z"/><path d="m27.5927 69.193c1.3485-.5545 1.9922-2.0971 1.4378-3.4456-.5545-1.3485-2.0971-1.9923-3.4456-1.4378-1.3485.5544-1.9922 2.0971-1.4378 3.4456s2.0971 1.9922 3.4456 1.4378z"/><path d="m2.64998 69.5002c.52455 0 1.03726-.1557 1.47327-.4473.436-.2917.77568-.7061.97595-1.1909.20028-.4848.25224-1.0182.14917-1.5325-.10306-.5143-.35654-.9865-.72815-1.3567s-.84467-.6218-1.35937-.7229c-.51471-.1011-1.04782-.0472-1.53186.1549-.48405.2021-.89728.5433-1.18726.9804s-.44375158.9504-.44177216 1.475c-.0000025.3475.06860696.6916.20190416 1.0126.133297.3209.328744.6124.574951.8577s.538407.4395.859867.5716c.32145.1321.66577.1994 1.0133.1981z"/><path d="m146.25 48.0901c1.458 0 2.64-1.182 2.64-2.64 0-1.4581-1.182-2.64-2.64-2.64s-2.64 1.1819-2.64 2.64c0 1.458 1.182 2.64 2.64 2.64z"/><path d="m122.31 48.0901c1.458 0 2.64-1.182 2.64-2.64 0-1.4581-1.182-2.64-2.64-2.64s-2.64 1.1819-2.64 2.64c0 1.458 1.182 2.64 2.64 2.64z"/><path d="m98.3799 48.0998c.5246.002 1.0379-.1517 1.475-.4417s.7781-.7032.9801-1.1873c.202-.484.256-1.0171.155-1.5318s-.352-.9878-.723-1.3595c-.3698-.3716-.842-.625-1.3563-.728-.5143-.1031-1.0477-.0512-1.5325.1491-.4848.2002-.8993.5399-1.1909.9759s-.4474.9487-.4474 1.4733c0 .7011.2779 1.3736.7727 1.8703s1.1663.7771 1.8673.7797z"/><path d="m74.45 48.0998c.5241 0 1.0365-.1554 1.4723-.4466s.7754-.705.976-1.1893c.2005-.4842.253-1.017.1507-1.5311-.1022-.514-.3546-.9863-.7252-1.3569s-.8428-.6229-1.3568-.7252c-.5141-.1022-1.0469-.0497-1.5311.1508-.4843.2006-.8981.5403-1.1893.9761-.2911.4357-.4466.9481-.4466 1.4722 0 .348.0685.6926.2016 1.0141.1332.3216.3284.6136.5745.8597s.5382.4413.8598.5745c.3215.1332.6661.2017 1.0141.2017z"/><path d="m50.51 48.0901c1.458 0 2.64-1.182 2.64-2.64 0-1.4581-1.182-2.64-2.64-2.64s-2.64 1.1819-2.64 2.64c0 1.458 1.182 2.64 2.64 2.64z"/><path d="m27.5913 47.7915c1.3485-.5544 1.9922-2.0971 1.4377-3.4456-.5544-1.3485-2.097-1.9921-3.4455-1.4377s-1.9923 2.097-1.4378 3.4455c.5544 1.3485 2.0971 1.9923 3.4456 1.4378z"/><path d="m2.64996 48.0998c.52412 0 1.0365-.1554 1.47229-.4466s.77538-.705.97596-1.1893c.20057-.4842.25313-1.017.15087-1.5311-.10225-.514-.35461-.9863-.72522-1.3569-.3706-.3706-.84288-.6229-1.35693-.7252-.51405-.1022-1.04678-.0497-1.531.1508-.48423.2006-.89815.5403-1.189336.9761-.291185.4357-.44665504.9481-.44665504 1.4722 0 .7028.27927404 1.3768.77624504 1.8738.496976.497 1.170956.7762 1.873776.7762z"/><path d="m146.25 26.6902c1.458 0 2.64-1.182 2.64-2.64 0-1.4581-1.182-2.64-2.64-2.64s-2.64 1.1819-2.64 2.64c0 1.458 1.182 2.64 2.64 2.64z"/><path d="m122.31 26.6902c1.458 0 2.64-1.182 2.64-2.64 0-1.4581-1.182-2.64-2.64-2.64s-2.64 1.1819-2.64 2.64c0 1.458 1.182 2.64 2.64 2.64z"/><path d="m98.38 26.6599c.5249.0019 1.0387-.152 1.476-.4425.437-.2904.779-.7042.98-1.1888.202-.4846.256-1.0183.154-1.5333s-.355-.988-.726-1.3592c-.3713-.3712-.8445-.6239-1.3595-.7258s-1.0486-.0486-1.5332.1532-.8984.543-1.1888.9803c-.2905.4374-.4445.9511-.4426 1.4761.0027.6993.2818 1.3693.7763 1.8638.4945.4946 1.1644.7735 1.8638.7762z"/><path d="m74.45 26.6599c.5246 0 1.0373-.1557 1.4733-.4474.436-.2916.7757-.706.976-1.1908.2002-.4848.2521-1.0182.149-1.5325s-.3564-.9865-.728-1.3567-.8448-.6218-1.3595-.7229c-.5147-.1012-1.0478-.0472-1.5319.1549-.484.2021-.8971.5433-1.1871.9804s-.4438.9504-.4418 1.475c0 .3475.0686.6916.2019 1.0126.1333.3209.3286.6124.5748.8577.2462.2452.5384.4395.8599.5716s.6659.1994 1.0134.1981z"/><path d="m50.51 26.6902c1.458 0 2.64-1.182 2.64-2.64 0-1.4581-1.182-2.64-2.64-2.64s-2.64 1.1819-2.64 2.64c0 1.458 1.182 2.64 2.64 2.64z"/><path d="m27.5937 26.3892c1.3485-.5544 1.9922-2.097 1.4378-3.4455-.5545-1.3485-2.0971-1.9923-3.4456-1.4378-1.3485.5544-1.9923 2.0971-1.4378 3.4456.5544 1.3485 2.0971 1.9922 3.4456 1.4377z"/><path d="m2.64998 26.6599c.52455 0 1.03726-.1557 1.47327-.4474.436-.2916.77568-.706.97595-1.1908.20028-.4848.25224-1.0182.14917-1.5325-.10306-.5143-.35654-.9865-.72815-1.3567s-.84467-.6218-1.35937-.7229c-.51471-.1012-1.04782-.0472-1.53186.1549-.48405.2021-.89728.5433-1.18726.9804s-.44375158.9504-.44177216 1.475c-.0000025.3475.06860696.6916.20190416 1.0126.133297.3209.328744.6124.574951.8577.246207.2452.538407.4395.859867.5716.32145.1321.66577.1994 1.0133.1981z"/><path d="m146.25 5.28c1.458 0 2.64-1.18197 2.64-2.64s-1.182-2.64-2.64-2.64-2.64 1.18197-2.64 2.64 1.182 2.64 2.64 2.64z"/><path d="m122.31 5.28c1.458 0 2.64-1.18197 2.64-2.64s-1.182-2.64-2.64-2.64-2.64 1.18197-2.64 2.64 1.182 2.64 2.64 2.64z"/><path d="m98.3799 5.29024c.5246.00198 1.0379-.15173 1.475-.44171s.7781-.70321.9801-1.18726c.202-.48404.256-1.01715.155-1.53186-.101-.5147-.352-.98782-.723-1.359432-.3698-.37161-.842-.625025-1.3563-.7280886-.5143-.1030639-1.0477-.05116609-1.5325.1491086-.4848.200275-.8993.539948-1.1909.975952-.2916.436-.4474.94872-.4474 1.47327 0 .70109.2779 1.37361.7727 1.8703.4948.49668 1.1663.77708 1.8673.77972z"/><path d="m74.45 5.29023c.5241 0 1.0365-.1554 1.4723-.44659s.7754-.70505.976-1.18927c.2005-.48422.253-1.01708.1507-1.53113-.1022-.51405-.3546-.98626-.7252-1.35687-.3706-.370609-.8428-.622969-1.3568-.72522-.5141-.1022508-1.0469-.04975433-1.5311.150818-.4843.200572-.8981.540223-1.1893.976012-.2911.43579-.4466.94811-.4466 1.47223 0 .348.0685.69265.2016 1.01416.1332.32151.3284.61361.5745.85968.2461.24608.5382.44129.8598.57446.3215.13318.6661.20172 1.0141.20172z"/><path d="m50.51 5.28c1.458 0 2.64-1.18197 2.64-2.64s-1.182-2.64-2.64-2.64-2.64 1.18197-2.64 2.64 1.182 2.64 2.64 2.64z"/><path d="m27.5922 4.97757c1.3485-.55443 1.9922-2.09709 1.4378-3.44559-.5545-1.348504-2.0971-1.992173-3.4456-1.4377365s-1.9923 2.0970365-1.4378 3.4455365c.5544 1.3485 2.0971 1.99223 3.4456 1.43779z"/><path d="m2.64996 5.29023c.52412 0 1.0365-.1554 1.47229-.44659s.77538-.70505.97596-1.18927c.20057-.48422.25313-1.01708.15087-1.53113-.10225-.51405-.35461-.98626-.72522-1.35687-.3706-.370609-.84288-.622969-1.35693-.72522-.51405-.1022508-1.04678-.04975433-1.531.150818-.48423.200572-.89815.540223-1.189336.976012-.291185.43579-.44665504.94811-.44665504 1.47223 0 .70282.27927404 1.37687.77624504 1.87384.496976.49697 1.170956.77618 1.873776.77618z"/></g></svg>

<svg width="149" height="91" viewBox="0 0 149 91" fill="none" xmlns="http://www.w3.org/2000/svg">
<g clip-path="url(#clip0_2614_13999)">
<path d="M146.25 90.9099C147.708 90.9099 148.89 89.7279 148.89 88.2699C148.89 86.8119 147.708 85.6299 146.25 85.6299C144.792 85.6299 143.61 86.8119 143.61 88.2699C143.61 89.7279 144.792 90.9099 146.25 90.9099Z" fill="#3B82F6"/>
<path d="M122.31 90.9099C123.768 90.9099 124.95 89.7279 124.95 88.2699C124.95 86.8119 123.768 85.6299 122.31 85.6299C120.852 85.6299 119.67 86.8119 119.67 88.2699C119.67 89.7279 120.852 90.9099 122.31 90.9099Z" fill="#3B82F6"/>
<path d="M98.3799 90.9099C98.9045 90.9118 99.4178 90.7581 99.8549 90.4682C100.292 90.1782 100.633 89.7649 100.835 89.2809C101.037 88.7969 101.091 88.2637 100.99 87.749C100.889 87.2343 100.638 86.7612 100.267 86.3896C99.8972 86.018 99.425 85.7646 98.9107 85.6615C98.3964 85.5585 97.863 85.6104 97.3782 85.8106C96.8934 86.0109 96.4789 86.3506 96.1873 86.7866C95.8957 87.2226 95.7399 87.7353 95.7399 88.2598C95.7399 88.9609 96.0178 89.6335 96.5126 90.1301C97.0074 90.6268 97.6789 90.9072 98.3799 90.9099Z" fill="#3B82F6"/>
<path d="M74.45 90.9099C74.9741 90.9099 75.4865 90.7545 75.9223 90.4633C76.3581 90.1721 76.6977 89.7582 76.8983 89.274C77.0988 88.7898 77.1513 88.2569 77.049 87.7429C76.9468 87.2288 76.6944 86.7567 76.3238 86.3861C75.9532 86.0155 75.481 85.763 74.967 85.6608C74.4529 85.5585 73.9201 85.611 73.4359 85.8116C72.9516 86.0122 72.5378 86.3518 72.2466 86.7876C71.9555 87.2234 71.8 87.7357 71.8 88.2598C71.8 88.6078 71.8685 88.9525 72.0016 89.274C72.1348 89.5955 72.33 89.8876 72.5761 90.1337C72.8222 90.3798 73.1143 90.575 73.4359 90.7082C73.7574 90.8414 74.102 90.9099 74.45 90.9099Z" fill="#3B82F6"/>
<path d="M50.51 90.9099C51.968 90.9099 53.15 89.7279 53.15 88.2699C53.15 86.8119 51.968 85.6299 50.51 85.6299C49.052 85.6299 47.87 86.8119 47.87 88.2699C47.87 89.7279 49.052 90.9099 50.51 90.9099Z" fill="#3B82F6"/>
<path d="M27.5903 90.5957C28.9388 90.0413 29.5826 88.4986 29.0281 87.1501C28.4737 85.8016 26.9311 85.158 25.5826 85.7124C24.2341 86.2668 23.5903 87.8094 24.1447 89.1579C24.6992 90.5064 26.2418 91.1502 27.5903 90.5957Z" fill="#3B82F6"/>
<path d="M2.64998 85.6602C2.12502 85.6582 1.61135 85.8122 1.17403 86.1026C0.736712 86.393 0.395495 86.8068 0.193685 87.2915C-0.00812604 87.7761 -0.0614455 88.3097 0.0404863 88.8247C0.142418 89.3397 0.394984 89.8128 0.766194 90.184C1.1374 90.5552 1.61047 90.8078 2.12545 90.9097C2.64043 91.0116 3.17414 90.9583 3.65877 90.7565C4.1434 90.5547 4.55719 90.2135 4.84762 89.7762C5.13804 89.3389 5.29198 88.8252 5.29 88.3002C5.28736 87.6008 5.0084 86.9308 4.51388 86.4363C4.01935 85.9418 3.34934 85.6628 2.64998 85.6602Z" fill="#3B82F6"/>
<path d="M146.25 69.5002C147.708 69.5002 148.89 68.3182 148.89 66.8602C148.89 65.4022 147.708 64.2202 146.25 64.2202C144.792 64.2202 143.61 65.4022 143.61 66.8602C143.61 68.3182 144.792 69.5002 146.25 69.5002Z" fill="#3B82F6"/>
<path d="M122.31 69.5002C123.768 69.5002 124.95 68.3182 124.95 66.8602C124.95 65.4022 123.768 64.2202 122.31 64.2202C120.852 64.2202 119.67 65.4022 119.67 66.8602C119.67 68.3182 120.852 69.5002 122.31 69.5002Z" fill="#3B82F6"/>
<path d="M98.38 69.5002C98.9049 69.5022 99.4187 69.3482 99.856 69.0578C100.293 68.7673 100.635 68.3535 100.836 67.8689C101.038 67.3843 101.092 66.8506 100.99 66.3357C100.888 65.8207 100.635 65.3475 100.264 64.9763C99.8927 64.6051 99.4195 64.3526 98.9045 64.2506C98.3895 64.1487 97.8559 64.202 97.3713 64.4038C96.8867 64.6056 96.4729 64.9469 96.1825 65.3842C95.892 65.8215 95.738 66.3352 95.7399 66.8602C95.7426 67.5595 96.0217 68.2295 96.5162 68.724C97.0107 69.2185 97.6806 69.4976 98.38 69.5002Z" fill="#3B82F6"/>
<path d="M74.45 69.5002C74.9746 69.5002 75.4873 69.3445 75.9233 69.0529C76.3593 68.7612 76.699 68.3468 76.8993 67.862C77.0995 67.3772 77.1514 66.8438 77.0483 66.3295C76.9452 65.8152 76.6919 65.343 76.3203 64.9728C75.9487 64.6026 75.4755 64.351 74.9608 64.2499C74.4461 64.1488 73.913 64.2027 73.4289 64.4048C72.9449 64.6069 72.5318 64.9481 72.2418 65.3852C71.9518 65.8223 71.798 66.3356 71.8 66.8602C71.8 67.2077 71.8686 67.5518 72.0019 67.8728C72.1352 68.1937 72.3305 68.4852 72.5767 68.7305C72.8229 68.9758 73.1151 69.17 73.4366 69.3021C73.7581 69.4342 74.1025 69.5015 74.45 69.5002Z" fill="#3B82F6"/>
<path d="M50.51 69.5002C51.968 69.5002 53.15 68.3182 53.15 66.8602C53.15 65.4022 51.968 64.2202 50.51 64.2202C49.052 64.2202 47.87 65.4022 47.87 66.8602C47.87 68.3182 49.052 69.5002 50.51 69.5002Z" fill="#3B82F6"/>
<path d="M27.5927 69.193C28.9412 68.6385 29.5849 67.0959 29.0305 65.7474C28.476 64.3989 26.9334 63.7551 25.5849 64.3096C24.2364 64.864 23.5927 66.4067 24.1471 67.7552C24.7015 69.1037 26.2442 69.7474 27.5927 69.193Z" fill="#3B82F6"/>
<path d="M2.64998 69.5002C3.17453 69.5002 3.68724 69.3445 4.12325 69.0529C4.55925 68.7612 4.89893 68.3468 5.0992 67.862C5.29948 67.3772 5.35144 66.8438 5.24837 66.3295C5.14531 65.8152 4.89183 65.343 4.52022 64.9728C4.14861 64.6026 3.67555 64.351 3.16085 64.2499C2.64614 64.1488 2.11303 64.2027 1.62899 64.4048C1.14494 64.6069 0.73171 64.9481 0.44173 65.3852C0.15175 65.8223 -0.00202158 66.3356 -4.21631e-05 66.8602C-4.46563e-05 67.2077 0.0685648 67.5518 0.201862 67.8728C0.335159 68.1937 0.530606 68.4852 0.776813 68.7305C1.02302 68.9758 1.31522 69.17 1.63668 69.3021C1.95813 69.4342 2.30245 69.5015 2.64998 69.5002Z" fill="#3B82F6"/>
<path d="M146.25 48.0901C147.708 48.0901 148.89 46.9081 148.89 45.4501C148.89 43.992 147.708 42.8101 146.25 42.8101C144.792 42.8101 143.61 43.992 143.61 45.4501C143.61 46.9081 144.792 48.0901 146.25 48.0901Z" fill="#3B82F6"/>
<path d="M122.31 48.0901C123.768 48.0901 124.95 46.9081 124.95 45.4501C124.95 43.992 123.768 42.8101 122.31 42.8101C120.852 42.8101 119.67 43.992 119.67 45.4501C119.67 46.9081 120.852 48.0901 122.31 48.0901Z" fill="#3B82F6"/>
<path d="M98.3799 48.0998C98.9045 48.1018 99.4178 47.9481 99.8549 47.6581C100.292 47.3681 100.633 46.9549 100.835 46.4708C101.037 45.9868 101.091 45.4537 100.99 44.939C100.889 44.4243 100.638 43.9512 100.267 43.5795C99.8972 43.2079 99.425 42.9545 98.9107 42.8515C98.3964 42.7484 97.863 42.8003 97.3782 43.0006C96.8934 43.2008 96.4789 43.5405 96.1873 43.9765C95.8957 44.4125 95.7399 44.9252 95.7399 45.4498C95.7399 46.1509 96.0178 46.8234 96.5126 47.3201C97.0074 47.8168 97.6789 48.0972 98.3799 48.0998Z" fill="#3B82F6"/>
<path d="M74.45 48.0998C74.9741 48.0998 75.4865 47.9444 75.9223 47.6532C76.3581 47.362 76.6977 46.9482 76.8983 46.4639C77.0988 45.9797 77.1513 45.4469 77.049 44.9328C76.9468 44.4188 76.6944 43.9465 76.3238 43.5759C75.9532 43.2053 75.481 42.953 74.967 42.8507C74.4529 42.7485 73.9201 42.801 73.4359 43.0015C72.9516 43.2021 72.5378 43.5418 72.2466 43.9776C71.9555 44.4133 71.8 44.9257 71.8 45.4498C71.8 45.7978 71.8685 46.1424 72.0016 46.4639C72.1348 46.7855 72.33 47.0775 72.5761 47.3236C72.8222 47.5697 73.1143 47.7649 73.4359 47.8981C73.7574 48.0313 74.102 48.0998 74.45 48.0998Z" fill="#3B82F6"/>
<path d="M50.51 48.0901C51.968 48.0901 53.15 46.9081 53.15 45.4501C53.15 43.992 51.968 42.8101 50.51 42.8101C49.052 42.8101 47.87 43.992 47.87 45.4501C47.87 46.9081 49.052 48.0901 50.51 48.0901Z" fill="#3B82F6"/>
<path d="M27.5913 47.7915C28.9398 47.2371 29.5835 45.6944 29.029 44.3459C28.4746 42.9974 26.932 42.3538 25.5835 42.9082C24.235 43.4626 23.5912 45.0052 24.1457 46.3537C24.7001 47.7022 26.2428 48.346 27.5913 47.7915Z" fill="#3B82F6"/>
<path d="M2.64996 48.0998C3.17408 48.0998 3.68646 47.9444 4.12225 47.6532C4.55804 47.362 4.89763 46.9482 5.09821 46.4639C5.29878 45.9797 5.35134 45.4469 5.24908 44.9328C5.14683 44.4188 4.89447 43.9465 4.52386 43.5759C4.15326 43.2053 3.68098 42.953 3.16693 42.8507C2.65288 42.7485 2.12015 42.801 1.63593 43.0015C1.1517 43.2021 0.73778 43.5418 0.446594 43.9776C0.155409 44.4133 -6.10352e-05 44.9257 -6.10352e-05 45.4498C-6.10352e-05 46.1526 0.279213 46.8266 0.776184 47.3236C1.27316 47.8206 1.94714 48.0998 2.64996 48.0998Z" fill="#3B82F6"/>
<path d="M146.25 26.6902C147.708 26.6902 148.89 25.5082 148.89 24.0502C148.89 22.5921 147.708 21.4102 146.25 21.4102C144.792 21.4102 143.61 22.5921 143.61 24.0502C143.61 25.5082 144.792 26.6902 146.25 26.6902Z" fill="#3B82F6"/>
<path d="M122.31 26.6902C123.768 26.6902 124.95 25.5082 124.95 24.0502C124.95 22.5921 123.768 21.4102 122.31 21.4102C120.852 21.4102 119.67 22.5921 119.67 24.0502C119.67 25.5082 120.852 26.6902 122.31 26.6902Z" fill="#3B82F6"/>
<path d="M98.38 26.6599C98.9049 26.6618 99.4187 26.5079 99.856 26.2174C100.293 25.927 100.635 25.5132 100.836 25.0286C101.038 24.544 101.092 24.0103 100.99 23.4953C100.888 22.9803 100.635 22.5073 100.264 22.1361C99.8927 21.7649 99.4195 21.5122 98.9045 21.4103C98.3895 21.3084 97.8559 21.3617 97.3713 21.5635C96.8867 21.7653 96.4729 22.1065 96.1825 22.5438C95.892 22.9812 95.738 23.4949 95.7399 24.0199C95.7426 24.7192 96.0217 25.3892 96.5162 25.8837C97.0107 26.3783 97.6806 26.6572 98.38 26.6599Z" fill="#3B82F6"/>
<path d="M74.45 26.6599C74.9746 26.6599 75.4873 26.5042 75.9233 26.2125C76.3593 25.9209 76.699 25.5065 76.8993 25.0217C77.0995 24.5369 77.1514 24.0035 77.0483 23.4892C76.9452 22.9749 76.6919 22.5027 76.3203 22.1325C75.9487 21.7623 75.4755 21.5107 74.9608 21.4096C74.4461 21.3084 73.913 21.3624 73.4289 21.5645C72.9449 21.7666 72.5318 22.1078 72.2418 22.5449C71.9518 22.982 71.798 23.4953 71.8 24.0199C71.8 24.3674 71.8686 24.7115 72.0019 25.0325C72.1352 25.3534 72.3305 25.6449 72.5767 25.8902C72.8229 26.1354 73.1151 26.3297 73.4366 26.4618C73.7581 26.5939 74.1025 26.6612 74.45 26.6599Z" fill="#3B82F6"/>
<path d="M50.51 26.6902C51.968 26.6902 53.15 25.5082 53.15 24.0502C53.15 22.5921 51.968 21.4102 50.51 21.4102C49.052 21.4102 47.87 22.5921 47.87 24.0502C47.87 25.5082 49.052 26.6902 50.51 26.6902Z" fill="#3B82F6"/>
<path d="M27.5937 26.3892C28.9422 25.8348 29.5859 24.2922 29.0315 22.9437C28.477 21.5952 26.9344 20.9514 25.5859 21.5059C24.2374 22.0603 23.5936 23.603 24.1481 24.9515C24.7025 26.3 26.2452 26.9437 27.5937 26.3892Z" fill="#3B82F6"/>
<path d="M2.64998 26.6599C3.17453 26.6599 3.68724 26.5042 4.12325 26.2125C4.55925 25.9209 4.89893 25.5065 5.0992 25.0217C5.29948 24.5369 5.35144 24.0035 5.24837 23.4892C5.14531 22.9749 4.89183 22.5027 4.52022 22.1325C4.14861 21.7623 3.67555 21.5107 3.16085 21.4096C2.64614 21.3084 2.11303 21.3624 1.62899 21.5645C1.14494 21.7666 0.73171 22.1078 0.44173 22.5449C0.15175 22.982 -0.00202158 23.4953 -4.21631e-05 24.0199C-4.46563e-05 24.3674 0.0685648 24.7115 0.201862 25.0325C0.335159 25.3534 0.530606 25.6449 0.776813 25.8902C1.02302 26.1354 1.31522 26.3297 1.63668 26.4618C1.95813 26.5939 2.30245 26.6612 2.64998 26.6599Z" fill="#3B82F6"/>
<path d="M146.25 5.28C147.708 5.28 148.89 4.09803 148.89 2.64C148.89 1.18197 147.708 0 146.25 0C144.792 0 143.61 1.18197 143.61 2.64C143.61 4.09803 144.792 5.28 146.25 5.28Z" fill="#3B82F6"/>
<path d="M122.31 5.28C123.768 5.28 124.95 4.09803 124.95 2.64C124.95 1.18197 123.768 0 122.31 0C120.852 0 119.67 1.18197 119.67 2.64C119.67 4.09803 120.852 5.28 122.31 5.28Z" fill="#3B82F6"/>
<path d="M98.3799 5.29024C98.9045 5.29222 99.4178 5.13851 99.8549 4.84853C100.292 4.55855 100.633 4.14532 100.835 3.66127C101.037 3.17723 101.091 2.64412 100.99 2.12941C100.889 1.61471 100.638 1.14159 100.267 0.769978C99.8972 0.398368 99.425 0.144953 98.9107 0.0418894C98.3964 -0.0611745 97.863 -0.00927669 97.3782 0.190998C96.8934 0.391273 96.4789 0.730946 96.1873 1.16695C95.8957 1.60295 95.7399 2.11567 95.7399 2.64022C95.7399 3.34131 96.0178 4.01383 96.5126 4.51052C97.0074 5.0072 97.6789 5.2876 98.3799 5.29024Z" fill="#3B82F6"/>
<path d="M74.45 5.29023C74.9741 5.29023 75.4865 5.13483 75.9223 4.84364C76.3581 4.55245 76.6977 4.13859 76.8983 3.65437C77.0988 3.17015 77.1513 2.63729 77.049 2.12324C76.9468 1.60919 76.6944 1.13698 76.3238 0.76637C75.9532 0.395761 75.481 0.143401 74.967 0.04115C74.4529 -0.0611008 73.9201 -0.00860433 73.4359 0.191968C72.9516 0.39254 72.5378 0.732191 72.2466 1.16798C71.9555 1.60377 71.8 2.11609 71.8 2.64021C71.8 2.98821 71.8685 3.33286 72.0016 3.65437C72.1348 3.97588 72.33 4.26798 72.5761 4.51405C72.8222 4.76013 73.1143 4.95534 73.4359 5.08851C73.7574 5.22169 74.102 5.29023 74.45 5.29023Z" fill="#3B82F6"/>
<path d="M50.51 5.28C51.968 5.28 53.15 4.09803 53.15 2.64C53.15 1.18197 51.968 0 50.51 0C49.052 0 47.87 1.18197 47.87 2.64C47.87 4.09803 49.052 5.28 50.51 5.28Z" fill="#3B82F6"/>
<path d="M27.5922 4.97757C28.9407 4.42314 29.5844 2.88048 29.03 1.53198C28.4755 0.183476 26.9329 -0.460193 25.5844 0.0942435C24.2359 0.64868 23.5921 2.19128 24.1466 3.53978C24.701 4.88828 26.2437 5.53201 27.5922 4.97757Z" fill="#3B82F6"/>
<path d="M2.64996 5.29023C3.17408 5.29023 3.68646 5.13483 4.12225 4.84364C4.55804 4.55245 4.89763 4.13859 5.09821 3.65437C5.29878 3.17015 5.35134 2.63729 5.24908 2.12324C5.14683 1.60919 4.89447 1.13698 4.52386 0.76637C4.15326 0.395761 3.68098 0.143401 3.16693 0.04115C2.65288 -0.0611008 2.12015 -0.00860433 1.63593 0.191968C1.1517 0.39254 0.73778 0.732191 0.446594 1.16798C0.155409 1.60377 -6.10352e-05 2.11609 -6.10352e-05 2.64021C-6.10352e-05 3.34303 0.279213 4.01708 0.776184 4.51405C1.27316 5.01102 1.94714 5.29023 2.64996 5.29023Z" fill="#3B82F6"/>
</g>
<defs>
<clipPath id="clip0_2614_13999">
<rect width="148.89" height="90.91" fill="white"/>
</clipPath>
</defs>
</svg>
